img/svg/building-2.svg

<svg xmlns="http://www.w3.org/2000/svg" width="612" height="792" viewBox="0 0 612 792"><path fill-rule="evenodd" clip-rule="evenodd" fill="#fff" d="M271.5 383.17v45.83h69v-52.07h-18.49v44.86h-3.72v-58.79h-22.11v58.79h-3.81v-38.62h-20.87zm54.13-1.34h11.15v13.16h-11.15v-13.16zm0 26.73h11.15v13.16h-11.15v-13.16zm-25.73-41.81h14.77v6.24h-14.77v-6.24zm0 15.39h14.77v6.24h-14.77v-6.24zm0 16.49h14.77v6.24h-14.77v-6.24zm0 15.39h14.77v6.25h-14.77v-6.25zm-24.87-26.14h4.95v8.65h-4.95v-8.65zm8.76 0h4.96v8.65h-4.96v-8.65zm0 24.89h4.96v8.65h-4.96v-8.65zm-8.76 0h4.95v8.65h-4.95v-8.65z"/></svg>

<?xml version="1.0" encoding="utf-8"?>
<!-- Generator: Adobe Illustrator 14.0.0, SVG Export Plug-In . SVG Version: 6.00 Build 43363)  -->
<!DOCTYPE svg PUBLIC "-//W3C//DTD SVG 1.1//EN" "http://www.w3.org/Graphics/SVG/1.1/DTD/svg11.dtd">
<svg version="1.1" id="Layer_1" xmlns="http://www.w3.org/2000/svg" xmlns:xlink="http://www.w3.org/1999/xlink" x="0px" y="0px"
	 width="612px" height="792px" viewBox="0 0 612 792" enable-background="new 0 0 612 792" xml:space="preserve">
<path fill-rule="evenodd" clip-rule="evenodd" fill="#FFFFFF" d="M271.5,383.17V429h2.1h18.77h3.81h22.11h3.72h14.49h4v-52.07
	h-18.49v44.86h-3.72V363h-22.11v58.79h-3.81v-38.62H271.5z M325.63,381.83h11.15v13.16h-11.15V381.83z M325.63,408.56h11.15v13.16
	h-11.15V408.56z M299.9,366.75h14.77v6.24H299.9V366.75z M299.9,382.14h14.77v6.24H299.9V382.14z M299.9,398.63h14.77v6.24H299.9
	V398.63z M299.9,414.02h14.77v6.25H299.9V414.02z M275.03,387.88h4.95v8.65h-4.95V387.88z M283.79,387.88h4.96v8.65h-4.96V387.88z
	 M283.79,412.77h4.96v8.65h-4.96V412.77z M275.03,412.77h4.95v8.65h-4.95V412.77z"/>
</svg>
